icons/small_plane.svg

<svg width="48" height="48" viewBox="0 0 48 48" fill="none" xmlns="http://www.w3.org/2000/svg">
<path fill-rule="evenodd" clip-rule="evenodd" d="M13.8064 14.0986C13.8064 14.0991 13.8064 14.0997 13.8065 14.1002C13.8079 14.1213 13.8119 14.171 13.8225 14.2453C13.8438 14.3942 13.891 14.6388 13.994 14.9481C14.1979 15.5597 14.6262 16.4429 15.5432 17.3599L19.2799 21.0967L8.82833 31.5483L9.97893 32.6989L24.8953 26.9618L33.1612 33.1612L26.9618 24.8953L32.6989 9.97893L31.5483 8.82833L21.0967 19.2799L17.3599 15.5432C16.4429 14.6262 15.5597 14.1979 14.9481 13.994C14.6388 13.891 14.3942 13.8438 14.2453 13.8225C14.171 13.8119 14.1213 13.8079 14.1002 13.8065C14.0997 13.8064 14.0991 13.8064 14.0986 13.8064H13.8064V14.0986ZM16.4515 7.1612C17.6128 5.99991 18.7741 7.1612 17.6128 8.32249L14.1289 11.8064C14.1289 11.8064 14.2976 11.8064 14.5894 11.8518C14.9876 11.9138 15.6151 12.0604 16.3567 12.407C17.0885 12.7492 17.9313 13.2861 18.7741 14.1289L21.0967 16.4515L30.1341 7.41412C30.9151 6.63307 32.1815 6.63307 32.9625 7.41412L34.1131 8.56472C34.672 9.1236 34.8493 9.9592 34.5656 10.6969L29.2257 24.5806L36.1935 33.8709L40.2233 31.8559C40.5908 31.6722 41.0346 31.7442 41.325 32.0347C41.6978 32.4074 41.6978 33.0117 41.325 33.3845L33.3845 41.325C33.0117 41.6978 32.4074 41.6978 32.0347 41.325C31.7442 41.0346 31.6722 40.5908 31.8559 40.2233L33.8709 36.1935L24.5806 29.2257L10.6969 34.5656C9.95919 34.8493 9.1236 34.672 8.56472 34.1131L7.41412 32.9625C6.63307 32.1815 6.63307 30.9151 7.41412 30.1341L16.4515 21.0967L14.1289 18.7741C13.2861 17.9313 12.7492 17.0885 12.407 16.3567C12.0604 15.6151 11.9138 14.9876 11.8518 14.5894C11.8064 14.2976 11.8064 14.1289 11.8064 14.1289L8.32249 17.6128C7.1612 18.7741 5.99991 17.6128 7.1612 16.4515L16.4515 7.1612Z" fill="black"/>
</svg>

<svg
  xmlns="http://www.w3.org/2000/svg"
  width="24"
  height="24"
  viewBox="0 0 24 24"
  fill="none"
  stroke="currentColor"
  stroke-width="2"
  stroke-linecap="round"
  stroke-linejoin="round"
>
  <path
    fill-rule="evenodd"
    d="M13.806 14.099v.001q.002.033.017.145c.02.15.068.394.171.703.204.612.632 1.495 1.55 2.412l3.736 3.737L8.828 31.548l1.15 1.15 14.917-5.736 8.266 6.2-6.2-8.267L32.7 9.98l-1.15-1.15-10.452 10.45-3.737-3.736c-.917-.917-1.8-1.345-2.412-1.549a4 4 0 0 0-.703-.171 2 2 0 0 0-.145-.017h-.294zm2.646-6.938c1.16-1.161 2.322 0 1.16 1.161l-3.483 3.484s.169 0 .46.046a6.6 6.6 0 0 1 1.768.555c.732.342 1.574.88 2.417 1.722l2.323 2.323 9.037-9.038a2 2 0 0 1 2.828 0l1.151 1.15a2 2 0 0 1 .453 2.133l-5.34 13.884 6.968 9.29 4.03-2.015a.954.954 0 0 1 1.101 1.529l-7.94 7.94a.954.954 0 0 1-1.53-1.102l2.016-4.03-9.29-6.967-13.884 5.34a2 2 0 0 1-2.132-.453l-1.15-1.15a2 2 0 0 1 0-2.829l9.036-9.037-2.322-2.323a8.5 8.5 0 0 1-1.722-2.417 6.6 6.6 0 0 1-.555-1.768c-.046-.291-.046-.46-.046-.46l-3.484 3.484c-1.16 1.161-2.322 0-1.16-1.162z"
    clip-rule="evenodd"
  />
</svg>
